icons/desktop/16/fingerprinter-slash-16.svg

<svg width="16" height="16" viewBox="0 0 16 16" fill="none" xmlns="http://www.w3.org/2000/svg">
<path d="M1.21973 1.21998C1.51262 0.927091 1.98738 0.927091 2.28027 1.21998L15.7803 14.72C16.0732 15.0129 16.0732 15.4876 15.7803 15.7805C15.4874 16.0734 15.0126 16.0734 14.7197 15.7805L13.125 14.1858C13.0863 14.2386 13.0487 14.2927 13.0088 14.346L12.7227 14.7005C12.5877 14.8793 12.3805 14.9993 12.1396 14.9993C11.7258 14.9991 11.3897 14.6631 11.3896 14.2493C11.3896 14.0893 11.4511 13.9494 11.5371 13.8274L11.8105 13.4456C11.8942 13.3343 11.9742 13.2228 12.0527 13.1135L11.1631 12.2239C10.4342 13.2484 9.4114 14.2289 7.97168 14.9397C7.87581 14.9806 7.77563 15.0003 7.67578 15.0003C7.38587 15.0002 7.10928 14.8301 6.9873 14.5462C6.8243 14.1652 6.99986 13.7248 7.38086 13.5608C8.62336 12.9286 9.48484 12.0523 10.0859 11.1467L9.18457 10.2454C8.16098 11.9968 6.26603 13.1751 4.09082 13.1751H1.75C1.336 13.1751 1 12.8391 1 12.4251C1.00014 12.0112 1.33609 11.6751 1.75 11.6751H4.09082C5.85717 11.6751 7.37231 10.6339 8.07227 9.13307L7.04688 8.10768C6.6911 9.41569 5.49477 10.3801 4.07617 10.3801H1.75C1.336 10.3801 1 10.0441 1 9.63014C1.00003 9.21617 1.33602 8.88014 1.75 8.88014H4.07617C4.94709 8.88005 5.65625 8.171 5.65625 7.30006L5.66016 6.72096L4.2793 5.3401C4.15674 5.77308 4.07192 6.23496 4.03418 6.72487L4.03125 6.75026C4.03122 7.16415 3.69512 7.50013 3.28125 7.50026C2.86727 7.50026 2.53128 7.16423 2.53125 6.75026L2.53711 6.61159C2.60579 5.71872 2.79703 4.89528 3.0918 4.1526L1.21973 2.28053C0.926833 1.98764 0.926833 1.51288 1.21973 1.21998Z" fill="black"/>
<path d="M7.38867 0.22096C10.2487 -0.53804 13.4444 0.708781 14.9824 3.18678C15.8913 4.65394 16.8575 7.55866 14.6299 11.8001L13.5156 10.6868C15.1306 7.33078 14.4081 5.10984 13.7061 3.97584C12.5101 2.04617 10.0152 1.07742 7.77441 1.67116C6.96141 1.88716 6.25759 2.29373 5.68359 2.85573L4.62012 1.79127C5.37505 1.05136 6.3058 0.507966 7.38867 0.22096Z" fill="black"/>
<path d="M6.84082 4.01198C7.63073 3.37205 8.71378 3.04503 9.84863 3.22389C11.8595 3.54786 13.2557 5.30786 12.96 7.14869C12.962 7.21069 12.9178 8.26905 12.4648 9.636L11.2529 8.42409C11.4409 7.63912 11.4677 7.07409 11.4697 7.00709C11.6437 5.88621 10.8061 4.89747 9.61133 4.70534C8.96937 4.60134 8.35936 4.75556 7.90137 5.07252L6.84082 4.01198Z" fill="black"/>
<path d="M9.25 6.00026C9.664 6.00026 10 6.33626 10 6.75026V7.17116L8.91602 6.08717C9.018 6.03618 9.12802 6.00026 9.25 6.00026Z" fill="black"/>
</svg>

<!-- This Source Code Form is subject to the terms of the Mozilla Public
   - License, v. 2.0. If a copy of the MPL was not distributed with this
   - file, You can obtain one at http://mozilla.org/MPL/2.0/. -->
<svg xmlns="http://www.w3.org/2000/svg" width="16" height="16" fill="context-fill" fill-opacity="context-fill-opacity" viewBox="0 0 16 16">
    <path d="M1.22 1.22a.75.75 0 0 1 1.06 0l13.5 13.5a.75.75 0 1 1-1.06 1.06l-1.595-1.594-.116.16-.286.354a.73.73 0 0 1-.583.3.75.75 0 0 1-.75-.75c0-.16.061-.3.147-.423l.273-.381q.125-.168.243-.332l-.89-.89a8.5 8.5 0 0 1-3.191 2.716.75.75 0 0 1-.985-.394.75.75 0 0 1 .394-.985 7.04 7.04 0 0 0 2.705-2.414l-.901-.902a5.89 5.89 0 0 1-5.094 2.93H1.75a.75.75 0 0 1 0-1.5h2.34a4.39 4.39 0 0 0 3.982-2.542L7.047 8.108a3.084 3.084 0 0 1-2.97 2.272H1.75a.75.75 0 0 1 0-1.5h2.326c.871 0 1.58-.709 1.58-1.58l.004-.579-1.38-1.38a7 7 0 0 0-.246 1.384l-.003.025a.75.75 0 0 1-1.5 0l.006-.138c.069-.893.26-1.717.555-2.46L1.22 2.282a.75.75 0 0 1 0-1.061m6.169-1c2.86-.759 6.055.488 7.593 2.966.91 1.467 1.876 4.372-.352 8.613l-1.114-1.113c1.615-3.356.892-5.577.19-6.711-1.196-1.93-3.69-2.899-5.932-2.305a4.7 4.7 0 0 0-2.09 1.185L4.62 1.79A6.2 6.2 0 0 1 7.39.221" />
    <path d="M6.84 4.012a3.83 3.83 0 0 1 3.009-.788c2.01.324 3.407 2.084 3.111 3.925.002.062-.042 1.12-.495 2.487l-1.212-1.212c.188-.785.215-1.35.217-1.417.174-1.12-.664-2.11-1.859-2.302a2.35 2.35 0 0 0-1.71.368z" />
    <path d="M9.25 6a.75.75 0 0 1 .75.75v.421L8.916 6.087A.74.74 0 0 1 9.25 6" />
</svg>
